icons/visa-fill.svg

<svg width="24" height="24" fill="none" xmlns="http://www.w3.org/2000/svg"><g clip-path="url(#a)"><path d="M1 4h22v2H1V4Zm0 14h22v2H1v-2Zm18.622-3.086-.174-.87h-1.949l-.31.863-1.562.003c1.005-2.406 1.75-4.19 2.236-5.348.127-.303.353-.457.685-.455.254.002.669.002 1.245 0L21 14.912l-1.378.003v-.001Zm-1.684-2.062h1.256l-.47-2.18-.786 2.18ZM7.872 9.106l1.57.002-2.427 5.806-1.59-.001c-.537-2.07-.932-3.606-1.184-4.605-.077-.307-.23-.521-.526-.622-.263-.09-.701-.23-1.315-.419v-.16h2.509c.434 0 .687.21.769.64l.62 3.289 1.574-3.93Zm3.727.002-1.24 5.805-1.495-.002 1.24-5.805 1.495.002ZM14.631 9c.446 0 1.01.138 1.334.267l-.262 1.204c-.293-.118-.775-.277-1.18-.27-.59.009-.954.256-.954.493 0 .384.632.578 1.284.999.743.48.84.91.831 1.378-.01.971-.831 1.929-2.564 1.929-.791-.012-1.076-.078-1.72-.306l.272-1.256c.656.274.935.361 1.495.361.515 0 .956-.207.96-.568.002-.257-.155-.384-.732-.702-.577-.317-1.385-.756-1.375-1.64C12.033 9.759 13.107 9 14.63 9h.001Z" /></g><defs><clipPath id="a"><path fill="#fff" d="M0 0h24v24H0z"/></clipPath></defs></svg>

<svg xmlns="http://www.w3.org/2000/svg" width="24" height="24" fill="none"><g clip-path="url(#a)"><g><path fill="#121212" d="M1 4H23V6H1V4ZM1 18H23V20H1V18ZM19.622 14.914L19.448 14.044H17.499L17.189 14.907L15.627 14.91C16.632 12.504 17.377 10.72 17.863 9.562C17.99 9.259 18.216 9.105 18.548 9.107C18.802 9.109 19.217 9.109 19.793 9.107L21 14.912L19.622 14.915V14.914ZM17.938 12.852H19.194L18.724 10.672L17.938 12.852ZM7.872 9.106L9.442 9.108L7.015 14.914L5.425 14.913C4.888 12.843 4.493 11.307 4.241 10.308C4.164 10.001 4.011 9.787 3.715 9.686C3.452 9.596 3.014 9.456 2.4 9.267V9.107H4.909C5.343 9.107 5.596 9.317 5.678 9.747L6.298 13.036L7.872 9.106ZM11.599 9.108L10.359 14.913L8.864 14.911L10.104 9.106L11.599 9.108ZM14.631 9C15.077 9 15.641 9.138 15.965 9.267L15.703 10.471C15.41 10.353 14.928 10.194 14.523 10.201C13.933 10.21 13.569 10.457 13.569 10.694C13.569 11.078 14.201 11.272 14.853 11.693C15.596 12.173 15.693 12.603 15.684 13.071C15.674 14.042 14.853 15 13.12 15C12.329 14.988 12.044 14.922 11.4 14.694L11.672 13.438C12.328 13.712 12.607 13.799 13.167 13.799C13.682 13.799 14.123 13.592 14.127 13.231C14.129 12.974 13.972 12.847 13.395 12.529C12.818 12.212 12.01 11.773 12.02 10.889C12.033 9.759 13.107 9 14.63 9H14.631Z"/></g></g><defs><clipPath id="a"><rect width="24" height="24" fill="white"/></clipPath></defs></svg>
